Papirus-GTK/16x16/apps/kfloppy.svg

<?xml version="1.0" encoding="UTF-8" standalone="no"?>
<svg
   xmlns:dc="http://purl.org/dc/elements/1.1/"
   xmlns:cc="http://creativecommons.org/ns#"
   xmlns:rdf="http://www.w3.org/1999/02/22-rdf-syntax-ns#"
   xmlns:svg="http://www.w3.org/2000/svg"
   xmlns="http://www.w3.org/2000/svg"
   xmlns:sodipodi="http://sodipodi.sourceforge.net/DTD/sodipodi-0.dtd"
   xmlns:inkscape="http://www.inkscape.org/namespaces/inkscape"
   id="svg2817"
   height="16"
   width="16"
   version="1.0"
   inkscape:version="0.91 r13725"
   sodipodi:docname="kfloppy.svg">
  <defs
     id="defs10" />
  <sodipodi:namedview
     pagecolor="#ffffff"
     bordercolor="#666666"
     borderopacity="1"
     objecttolerance="10"
     gridtolerance="10"
     guidetolerance="10"
     inkscape:pageopacity="0"
     inkscape:pageshadow="2"
     inkscape:window-width="1535"
     inkscape:window-height="876"
     id="namedview8"
     showgrid="false"
     inkscape:zoom="14.75"
     inkscape:cx="8"
     inkscape:cy="8"
     inkscape:window-x="65"
     inkscape:window-y="24"
     inkscape:window-maximized="1"
     inkscape:current-layer="svg2817" />
  <metadata
     id="metadata57">
    <rdf:RDF>
      <cc:Work
         rdf:about="">
        <dc:format>image/svg+xml</dc:format>
        <dc:type
           rdf:resource="http://purl.org/dc/dcmitype/StillImage" />
        <dc:title />
      </cc:Work>
    </rdf:RDF>
  </metadata>
  <rect
     id="rect4203"
     ry="0.8"
     rx="0.8"
     transform="matrix(0,-1,-1,0,0,0)"
     height="16"
     width="16"
     y="-16"
     x="-16"
     fill="#858a89"
     style="fill:#5d5d5d;fill-opacity:1" />
  <path
     id="path4163"
     fill="#d4d4d4"
     d="m4.1152 0c-0.0712 0.11802-0.1152 0.25363-0.1152 0.40039v4.7988c0 0.4434 0.3721 0.8008 0.834 0.8008h8.332c0.462 0 0.834-0.3574 0.834-0.8008v-4.7988c0-0.14677-0.044-0.28238-0.115-0.4004h-9.7698zm6.3148 1h2.14c0.238 0 0.43 0.1972 0.43 0.4434v3.1132c0 0.246-0.192 0.4434-0.43 0.4434h-2.14c-0.238 0-0.43-0.1974-0.43-0.4434v-3.1132c0-0.2462 0.192-0.4434 0.43-0.4434z"
     style="fill:#848484;fill-opacity:1" />
  <path
     d="M 2.75 8 C 2.3345 8 2 8.3464647 2 8.7773438 L 2 13 L 14 13 L 14 8.7773438 C 14 8.3464647 13.6655 8 13.25 8 L 2.75 8 z M 2 14.111328 L 2 14.222656 C 2 14.653535 2.3345 15 2.75 15 C 2.3345 15 2 14.603328 2 14.111328 z M 14 14.111328 C 14 14.603328 13.665 15 13.25 15 C 13.6655 15 14 14.653535 14 14.222656 L 14 14.111328 z "
     id="rect4186-0"
     style="fill:#ffffff;fill-opacity:1" />
  <path
     id="rect4155"
     d="m14 13v1.1111c0 0.492-0.335 0.889-0.75 0.889h-10.5c-0.4155 0-0.75-0.397-0.75-0.889v-1.111z"
     fill="#ffae3f" />
</svg>

<?xml version="1.0" encoding="UTF-8" standalone="no"?>
<svg id="svg2817" xmlns:rdf="http://www.w3.org/1999/02/22-rdf-syntax-ns#" xmlns="http://www.w3.org/2000/svg" height="16" width="16" version="1.0" xmlns:cc="http://creativecommons.org/ns#" xmlns:dc="http://purl.org/dc/elements/1.1/">
 <metadata id="metadata57">
  <rdf:RDF>
   <cc:Work rdf:about="">
    <dc:format>image/svg+xml</dc:format>
    <dc:type rdf:resource="http://purl.org/dc/dcmitype/StillImage"/>
    <dc:title/>
   </cc:Work>
  </rdf:RDF>
 </metadata>
 <rect id="rect4203" ry=".8" rx=".8" transform="matrix(0,-1,-1,0,0,0)" height="16" width="16" y="-16" x="-16" fill="#5d5d5d"/>
 <path id="path4163" d="m4.1152 0c-0.0712 0.11802-0.1152 0.25363-0.1152 0.40039v4.7988c0 0.4434 0.3721 0.8008 0.834 0.8008h8.332c0.462 0 0.834-0.3574 0.834-0.8008v-4.7988c0-0.14677-0.044-0.28238-0.115-0.4004h-9.7698zm6.3148 1h2.14c0.238 0 0.43 0.1972 0.43 0.4434v3.1132c0 0.246-0.192 0.4434-0.43 0.4434h-2.14c-0.238 0-0.43-0.1974-0.43-0.4434v-3.1132c0-0.2462 0.192-0.4434 0.43-0.4434z" fill="#848484"/>
 <path id="rect4186-0" fill="#fff" d="m2.75 8c-0.4155 0-0.75 0.3465-0.75 0.7773v4.2227h12v-4.2227c0-0.4308-0.334-0.7773-0.75-0.7773h-10.5zm-0.75 6.111v0.112c0 0.431 0.3345 0.777 0.75 0.777-0.4155 0-0.75-0.397-0.75-0.889zm12 0c0 0.492-0.335 0.889-0.75 0.889 0.416 0 0.75-0.346 0.75-0.777v-0.112z"/>
 <path id="rect4155" fill="#ffae3f" d="m14 13v1.1111c0 0.492-0.335 0.889-0.75 0.889h-10.5c-0.4155 0-0.75-0.397-0.75-0.889v-1.111z"/>
</svg>
